X:1
T:5 Lieder, Op.4
T:Lied
T:5 Lieder, Op.4
T:4. Lied 
T:Clara Faisst 
T:Julius Sturm
T:Creative Commons copyright waiver (CC0 1.0 Universal)
T:Creative Commons copyright waiver (CC0 1.0 Universal)
C:Clara Faisst
Z:Julius Sturm
Z:Creative Commons copyright waiver (CC0 1.0 Universal)
%%score 1 { ( 2 4 ) | ( 3 5 ) }
L:1/8
Q:1/4=71
M:3/4
K:Eb
V:1 treble nm="Singstimme\nVoice"
V:2 treble nm="Pianoforte"
V:4 treble 
V:3 bass 
V:5 bass 
V:1
"^Langsam" G4 G2 |!<(! G4 G2!<)! |!f! c4!>(! G2 | E4!>)!!mf! D2 | (C2 E2) A2 | G4 F2 | E4 D2 | %7
w: Wenn dies|Herz hat|aus- ge-|schla- gen|mögt * ihr's|still zu|Gra- be|
 C4 =B,2 | !>!=B4 B2 | F4 D2 |!<(! (C2 D2) E2!<)! | (G4 F2) |!mp!!<(! c4!<)! c2 |!f! c4 G2 | %14
w: tra- gen,|spart am|Sar- ge|Kranz * und|Zier,  _|nur ein|Kreuz ver-|
 G4 F2 | (F4 =E2) |!p! _E4 E2 | E4 E2 | (A2 GA) (B=B) |!<(! (c3!<)!!mf! _d) (c_B) | %20
w: gön- net|mir!  _|Pflanzt auch|kei- ne|duft'- * * gen  _|Ro- * sen  _|
!>(! (E2 =E2)!>)!!p! F2 | G4 C2 |"^rit."[Q:1/4=62]"^\n" =B,4 C2 |!>(! (E2 D2)!>)! !fermata!D2 | %24
w: auf  _ das|Grab des|Freu- de-|lo- * sen:|
[Q:1/4=71] E4 E2 | B4 G2 | E4 F2 | G6[Q:1/4=60] |!p![Q:1/4=68] G4 G2 | G4 G2 | %30
w: Wählt für|mei- ne|Schlum- mer-|statt|Im- mer-|grün und|
!<(! (G2!<)!!mf!!>(! c2) G2!>)! |!p! G6 | z6 | z6[Q:1/4=60] | !fermata!z6 |] %35
w: E- * pheu-|blatt.||||
V:2
!p![I:staff +1] [G,CE]4 [G,=B,D]2 | [E,G,C]4 [G,=B,D]2 |[I:staff -1] [E,A,C]4!<(! [G,=B,D]2 | %3
 [G,CE]4 [G,DG]2 | [CEA]4!<)! [CEA]2 |!>(! [B,EG]4 [A,DF]2!>)! |!p! [G,CE]4[I:staff +1] [F,A,D]2 | %7
 [E,G,C]4 [D,G,=B,]2 |[I:staff -1] [=B,DF]6- | [B,DF]6 | [CE]6 | [G,B,E]4 [F,B,D]2 | %12
[I:staff +1] [^F,CE]6 |!<(![I:staff -1] ([G,C=E]2 [CEG]2!<)!"_espressivo" [EGc]2 | %14
 [G=B=e]4 [FBd]2 |!>(! [FG=B]4!>)! [=EGc]2) |!p! ([_EAc]4 [EG_B]2) | ([Ac]3 [_df]!<(! [ce][Bd]) | %18
 [Ac]2 ([GB][Ac] [B_d][=B=d])!<)! |!mf! ([ce]3 [_df]!>(! [ce][Bd]) | [Ac]4!>)! [Ac]2 | %21
 (.c.=B ._B2 .[CFA]2) | (.A"_rit.".G .F2 .[CE]2) |!>(! (E2 D2!>)! !fermata![G,=B,D]2) | %24
!p! ([G,CE]4 [A,CE]2) | ([B,EB]4 [B,EG]2 | [G,CE]4 [CF]2 | G2)!pp! G2"^rit." G2 | %28
!pp! ([c=eg]2"_dolciss." [g=e']2 [ec']2 | [=Bfg]4)!<(! ([Bfg]2 | g2 [fc']2!<)!!mp!!>(! g2 | %31
 g4)!>)! ([=B,FG]2 |!pp!!<(! G2 [Fc]2!<)!!p!!>(! [CG]2 |!pp! G4)!>)! z2 | %34
[I:staff +1] !fermata![C,=E,G,]6 |] %35
V:3
 z2 .[C,,C,]2 .[G,,,G,,]2 | z2 .[C,,C,]2 .[G,,,G,,]2 | z2 .[C,,,C,,]2 .[G,,,G,,]2 | %3
 z2 .[C,,C,]2 .[B,,,B,,]2 | z2!f! .[A,,,A,,]2 .[E,,,E,,]2 | z2 .[E,,E,]2 .[=B,,,=B,,]2 | %6
 z2 .[C,,C,]2 .[F,,,F,,]2 | z2 .G,,2 .G,,,2 | z2 .[A,,A,]2 .[A,,,A,,]2 | %9
 z2!p! .[G,,G,]2 .[G,,,G,,]2 | z2 .[A,,A,]2 .[A,,,A,,]2 | z2 .B,,2 .B,,,2 | %12
 z2 ([=A,,,=A,,]2 [_A,,,_A,,]2) | [G,,,G,,]6 | z2 .[G,,G,]2 .[G,,,G,,]2 | %15
 z2 .[C,,C,]2 .[C,,,C,,]2 | z2 .[A,,,A,,]2 .[E,,,E,,]2 | z2 .[A,,,A,,]2 .[E,,,E,,]2 | %18
 z2 .[A,,,A,,]2 .[E,,,E,,]2 | z2 .[A,,,A,,]2 .[E,,,E,,]2 | ([A,,,A,,]2 [G,,,G,,]2 [F,,,F,,]2) | %21
 [=E,,,=E,,]4 [F,,,F,,]2 | [G,,,G,,]4 [A,,,A,,]2 | [^F,,,^F,,]4 !fermata![G,,,G,,]2 | %24
 (C,2 B,,2 A,,2 | G,,2 F,,2 E,,2) | (C,2 B,,2 A,,2) | G,,6 |[K:treble] [G,CG]6 | (G2 d2) G2 | %30
 [=EG]2 [F=A]2 [EG]2 | [DF]2 [C=E]2 G,2 |[K:bass] [=E,G,]2 [F,=A,]2 [E,G,]2 | [C,G,]4 [G,,G,]2 | %34
 C,,6 |] %35
V:4
 x6 | x6 | x6 | x6 | x6 | x6 | x6 | x6 | x6 | x6 | x6 | x6 | x6 | x6 | x6 | x6 | x6 | E4 E2 | %18
 E4 E2 | E4 E2 | (E2 =E2 F2) | [CG]4 x2 | [=B,D]4 x2 | [=A,C]4 x2 | x6 | x6 | x6 | [=B,D]6 | x6 | %29
 x6 | c4 c2 | =B2 c2 x2 | C6 | =B,2"_rit." C2 x2 | x6 |] %35
V:5
 x6 | x6 | x6 | x6 | x6 | x6 | x6 | x6 | x6 | x6 | x6 | x6 | x6 | x6 | x6 | x6 | x6 | x6 | x6 | %19
 x6 | x6 | x6 | x6 | x6 | x6 | x6 | x6 | x6 |[K:treble] x6 | [G,D]6 | [G,C]6 | [G,G]4 x2 | %32
[K:bass] C,6 | F,2 =E,2 x2 | x6 |] %35

